X: 41122
T: Trip To Sproughton
R: slide
M: 12/8
K: Gmajor
|:DEF GAB cBA d3|def gdd edB dBG|
DEF GAB cBA d3|1 def gdB AGF G2D:|2 def gdB cBA G2g||
|:gGG fGG edB dBG|EFG EFG ABc def|
gGG fGG edB dBG|1 EFG ABc dBA G2g:|2 EFG ABc dBA G2D||

